public/img/logos/laravel.svg

<?xml version="1.0" encoding="UTF-8" standalone="no" ?>
<svg width="256px" height="256px" viewBox="0 0 256 256" version="1.1" xmlns="http://www.w3.org/2000/svg" xmlns:xlink="http://www.w3.org/1999/xlink" preserveAspectRatio="xMidYMid">
    <g fill="#F35045">
        <path d="M160.444667,208 C162.444667,210.888667 163.666667,210.666667 165.222,210 C166.777333,209.333333 246.778,182.333333 249.222,181.444667 C251.666,180.556 250.888667,179.778 250.111333,178.555333 C249.334,177.332667 222.666667,141.111333 221.333333,139 C220,136.888667 219.333333,137.333333 217.222,138 L132.416667,160.066667 C132.416667,160.066667 158.444667,205.111333 160.444667,208 L160.444667,208 Z"></path>
        <path d="M256,171.115333 L256,128.716667 C246.458667,131.259333 234.391333,134.472667 229.627333,135.74 C236.814,145.356 248.05,160.404667 256,171.115333 L256,171.115333 Z"></path>
        <path d="M229.545333,83.5213333 C228.238,83.818 199.298,89.048 197.515333,89.2853333 C195.732667,89.5226667 196.326667,90.5333333 197.04,91.5433333 L222.507333,126.486 C222.507333,126.486 253.646,118.760667 255.548,118.344667 C255.702,118.310667 255.852667,118.274667 256,118.238 L256,113.611333 C250.34,106.434 234.919333,86.8933333 233.586667,85.0673333 C231.982667,82.868 230.852667,83.2246667 229.545333,83.5213333 L229.545333,83.5213333 Z"></path>
        <path d="M47.456,28.634 C53.7226667,28.3493333 54.2946667,29.7753333 57.048,33.858 L126.218667,149.5 L213.192,128.664667 C208.373333,121.834 186.496667,90.8186667 184.382667,87.8593333 C182.006,84.5313333 184.442,82.986 188.304667,82.3326667 C192.167333,81.6793333 225.444667,76.0933333 228.297333,75.6773333 C231.15,75.2613333 233.408667,74.2513333 238.043333,79.8373333 C240.414667,82.6953333 248.455333,92.7073333 256,102.092 L256,48 C256,34.778 251.305333,23.472 241.916667,14.0833333 C232.528,4.69466667 221.222,0 208,0 L48,0 C34.778,0 23.472,4.69466667 14.0833333,14.0833333 C8.698,19.4686667 4.86533333,25.4873333 2.56866667,32.134 C18.2466667,30.846 43.07,28.8333333 47.456,28.634 L47.456,28.634 Z"></path>
        <path d="M168.288667,223.564 C160.954667,225.786 157.666,226.888667 152.888667,220.222 C149.310667,215.228667 129.962,180.378667 120.474667,163.198667 C102.52,167.901333 69.6606667,176.477333 60.1853333,178.754 C50.9366667,180.976 46.9873333,175.431333 45.468,172.013333 C44.4026667,169.616667 17.2893333,111.159333 0,73.6506667 L0,208 C0,221.222667 4.69466667,232.527333 14.0833333,241.916667 C23.472,251.305333 34.778,256 48,256 L208,256 C221.222,256 232.528,251.305333 241.916667,241.916667 C251.305333,232.527333 256,221.222667 256,208 L256,192.218667 C236.359333,199.402667 173.23,222.066667 168.288667,223.564 L168.288667,223.564 Z"></path>
        <path d="M60.412,165.288 C63.0113333,164.693333 111.724667,153.034667 112.764667,152.812 C113.804667,152.589333 114.472667,151.994667 113.358667,150.064667 C112.244667,148.134667 48.4253333,37.9753333 48.4253333,37.9753333 C47.836,36.964 48.004,36.6273333 46.4033333,36.7113333 C44.976,36.7866667 8.86533333,40.0086667 0.504666667,40.7073333 C0.258,42.446 0.109333333,44.2246667 0.044,46.038 C8.53133333,63.4126667 57.2426667,163.874667 57.516,164.693333 C57.8133333,165.584667 57.8126667,165.882 60.412,165.288 L60.412,165.288 Z"></path>
    </g>
</svg>

<svg width="256" height="256" viewBox="0 0 256 256" xmlns="http://www.w3.org/2000/svg" preserveAspectRatio="xMidYMid"><g fill="#F35045"><path d="M160.445 208c2 2.889 3.222 2.667 4.777 2 1.555-.667 81.556-27.667 84-28.555 2.444-.889 1.667-1.667.889-2.889-.777-1.223-27.445-37.444-28.778-39.555-1.333-2.111-2-1.667-4.111-1l-84.805 22.067s26.028 45.045 28.028 47.933zM256 171.115v-42.399c-9.541 2.543-21.609 5.756-26.373 7.023 7.187 9.616 18.423 24.665 26.373 35.375zM229.545 83.521c-1.307.297-30.247 5.527-32.03 5.764-1.783.237-1.189 1.248-.475 2.258l25.467 34.943s31.139-7.725 33.041-8.141l.452-.107v-4.627c-5.66-7.177-21.081-26.718-22.413-28.544-1.604-2.199-2.734-1.843-4.041-1.546zM47.456 28.634c6.267-.285 6.839 1.141 9.592 5.224l69.171 115.642 86.973-20.835c-4.819-6.831-26.695-37.846-28.809-40.805-2.377-3.328.059-4.873 3.922-5.527 3.863-.653 37.14-6.239 39.993-6.655 2.853-.416 5.111-1.426 9.746 4.16 2.371 2.858 10.412 12.87 17.957 22.255v-54.092c0-13.222-4.695-24.528-14.083-33.917-9.389-9.389-20.695-14.083-33.917-14.083h-160c-13.222 0-24.528 4.695-33.917 14.083-5.385 5.385-9.218 11.404-11.515 18.051 15.678-1.288 40.501-3.301 44.887-3.5zM168.289 223.564c-7.334 2.222-10.623 3.325-15.4-3.342-3.578-4.993-22.927-39.843-32.414-57.023-17.955 4.703-50.814 13.279-60.289 15.555-9.249 2.222-13.198-3.323-14.717-6.741-1.065-2.397-28.179-60.854-45.468-98.363v134.349c0 13.223 4.695 24.527 14.083 33.917 9.389 9.389 20.695 14.083 33.917 14.083h160c13.222 0 24.528-4.695 33.917-14.083 9.389-9.389 14.083-20.694 14.083-33.917v-15.781c-19.641 7.184-82.77 29.848-87.711 31.345zM60.412 165.288c2.599-.595 51.313-12.253 52.353-12.476 1.04-.223 1.708-.817.594-2.747-1.114-1.93-64.933-112.089-64.933-112.089-.589-1.011-.421-1.348-2.022-1.264-1.427.075-37.538 3.297-45.899 3.996-.247 1.739-.395 3.517-.461 5.331 8.487 17.375 57.199 117.837 57.472 118.655.297.891.297 1.189 2.896.595z"/></g></svg>
